static/assets/svg/human/humanClothes/female_shirt11_stickers/female_shirt11_sticker8.svg

<svg class="shirtOverlay" width="86" height="380" viewBox="202.715 584.407 86.5933 380.048" preserveAspectRatio="xMidYMax" xmlns="http://www.w3.org/2000/svg">
  <defs id="svgEditorDefs">
    <path id="svgEditorClosePathDefs" fill="red" style="stroke-width: 0px; stroke: none;" class="clothes"/>
    <linearGradient id="gradient-1" gradientUnits="userSpaceOnUse" x1="246.732" y1="686.906" x2="246.732" y2="737.622" gradientTransform="matrix(1.106276, 0, 0, 1.162633, -27.393024, -124.731998)">
      <stop offset="0" style="stop-color: rgba(254, 131, 131, 1)"/>
      <stop offset="1" style="stop-color: rgba(253, 30, 30, 1)"/>
    </linearGradient>
  </defs>
  <path d="M 233.773 721.648 C 227.76 689.438 189.725 692.822 225.936 682.42 C 230.558 681.092 238.915 675.737 241.948 678.925 C 242.74 679.757 244.792 684.03 245.345 682.03 C 246.869 676.519 247.807 676.612 249.636 674.692 C 251.956 672.254 267.21 663.104 269.569 671.07 C 275.284 690.37 256.009 691.552 263.634 707.525 C 264.253 708.824 256.168 737.358 256.168 732.238" style="stroke: rgb(70, 70, 70); fill: url(#gradient-1);"/>
  <g transform="matrix(0.055222, 0, 0, 0.049917, 217.038589, 697.638977)" style="">
    <path style="fill: rgb(255, 42, 42); stroke: rgb(0, 0, 0); stroke-width: 4.00665;" d="M 833.605 493.823 C 828.251 492.721 819.521 490.154 814.204 488.118 C 808.888 486.081 803.06 483.932 801.254 483.343 C 799.448 482.753 792.004 479.535 784.713 476.19 C 777.422 472.845 768.157 468.875 764.124 467.369 C 760.091 465.862 752.618 462.815 747.516 460.6 C 724.098 450.429 684.478 437.872 675.794 437.867 C 674.5 437.867 668.345 436.717 662.117 435.313 C 655.889 433.908 645.139 432.199 638.228 431.513 C 631.317 430.828 622.436 429.71 618.495 429.028 C 614.553 428.348 603.062 427.022 592.96 426.083 C 582.858 425.143 571.533 424.006 567.791 423.557 C 555.257 422.053 536.381 421.019 498.563 419.767 C 461.53 418.538 454.695 418.104 432.875 415.593 C 426.79 414.892 410.098 413.162 395.782 411.747 C 368.965 409.095 365.112 408.561 341.539 404.211 C 333.907 402.803 325.382 401.29 322.594 400.85 C 287.506 395.299 255.738 386.506 238.828 377.663 C 230.116 373.108 229.853 372.403 232 359.357 C 233.28 351.578 233.905 349.758 238.152 341.434 C 246.387 325.296 248.073 319.612 249.707 302.483 L 250.611 293.008 L 252.574 293.008 C 253.653 293.008 255.886 292.277 257.534 291.383 C 260.453 289.801 260.643 289.798 264.892 291.279 C 267.292 292.114 270.187 293.565 271.328 294.5 C 274.584 297.173 283.96 301.931 288.94 303.44 C 312.261 310.504 332.379 314.061 372.304 318.182 C 430.31 324.17 441.217 324.844 495.986 325.838 C 519.074 326.258 543.168 326.996 549.53 327.48 C 555.892 327.965 568.699 328.731 577.99 329.184 C 598.919 330.205 615.228 331.862 641.435 335.628 C 677.87 340.866 689.594 342.521 696.928 343.466 C 700.896 343.976 710.109 345.906 717.4 347.754 C 724.691 349.602 733.735 351.495 737.498 351.96 C 747.217 353.162 758.631 356.458 764.983 359.897 C 767.981 361.52 775.169 364.711 780.955 366.989 C 810.344 378.558 822.548 384.892 847.261 401.411 C 860.142 410.02 864.69 412.489 877.074 417.593 C 890.225 423.015 906.692 427.016 921.621 428.419 C 931.315 429.329 934.747 429.137 950.796 426.786 C 957.547 425.797 963.272 425.224 963.518 425.512 C 965.006 427.252 951.026 433.961 936.846 438.312 C 922.183 442.811 894.447 446.244 882.224 445.074 C 868.709 443.78 840.739 438.321 828.592 434.606 C 817.736 431.286 809.619 430.467 805.66 432.292 C 801.956 433.999 799.468 436.742 798.949 439.69 C 798.64 441.451 799.537 442.91 802.831 446.001 C 805.189 448.213 809.535 452.932 812.491 456.49 C 818.253 463.423 824.553 468.268 835.84 474.444 C 849.099 481.699 849.689 481.834 870.055 482.3 L 888.241 482.717 L 901.044 478.899 C 918.72 473.626 922.805 472.946 937.243 472.877 C 952.786 472.803 957.964 473.542 957.57 475.779 C 957.268 477.498 955.92 477.837 946.214 478.637 C 939.606 479.181 905.285 486.882 899.531 489.111 C 892.802 491.719 876.815 494.404 863.424 495.177 C 846.331 496.163 844.597 496.085 833.605 493.823 Z" id="path3333" transform="matrix(0.984873, -0.173279, 0.173279, 0.984873, -59.060588, 109.436176)"/>
    <path style="fill: rgb(255, 0, 0); stroke: rgb(0, 0, 0); stroke-width: 4.00665;" d="m 833.13257,214.80736 c 0.77481,-6.62444 -0.0499,-8.56313 -6.55699,-15.41338 -9.68965,-10.20068 -18.65254,-15.94964 -41.99465,-26.9361 -12.63878,-5.9487 -50.99297,-19.20415 -78.24431,-27.04169 -8.23062,-2.36715 -17.69095,-5.2348 -21.02295,-6.37256 -3.332,-1.13776 -7.75729,-2.34638 -9.83398,-2.68583 -2.07669,-0.33946 -8.68646,-1.72249 -14.68837,-3.07342 -31.5733,-7.10658 -66.62483,-10.33702 -115.21897,-10.61888 -22.55366,-0.13081 -96.55657,-1.69906 -140.66873,-2.98102 -33.66303,-0.97828 -45.42324,-2.09181 -76.53405,-7.24665 -12.46351,-2.06511 -28.89625,-4.54729 -36.51721,-5.51595 -15.21161,-1.93349 -27.53671,-4.38705 -35.08743,-6.98487 -2.69299,-0.926524 -12.59995,-3.387098 -22.01546,-5.467935 -45.68681,-10.09683 -72.30676,-12.347907 -97.92882,-8.281211 -20.59796,3.269279 -25.98929,4.758678 -50.025049,13.819826 -12.698667,4.78722 -25.589738,9.62326 -28.646824,10.74675 -4.402518,1.61794 -7.247618,2.04374 -13.682066,2.04765 -14.035268,0.009 -13.551222,-2.14794 1.619112,-7.21332 10.357547,-3.45838 11.195578,-3.95267 19.831188,-11.696818 18.473281,-16.56627 24.195434,-21.380277 27.290351,-22.959186 8.325728,-4.247468 23.209208,-9.715982 29.371748,-10.79182 3.69948,-0.645842 7.74383,-1.660358 8.98746,-2.254479 4.9945,-2.386046 2.44364,-7.869174 -4.90186,-10.53662 C 121.10986,45.332654 103.61793,44.77323 92.299599,46.250789 87.391116,46.89157 78.949792,47.395724 73.5411,47.371131 60.332888,47.311074 53.614693,45.336043 36.77055,36.561238 22.284223,29.014716 20.523097,27.816635 20.523097,25.508207 c 0,-1.452296 1.243749,-1.540292 20.309316,-1.436894 22.313869,0.121012 18.761649,0.634516 47.245881,-6.829786 25.825686,-6.767629 55.531216,-9.7274551 70.274276,-7.002052 2.6089,0.482281 9.89473,1.221997 16.19072,1.643814 15.67868,1.050434 23.93934,2.279925 37.95629,5.649293 15.61239,3.75288 31.94713,6.961881 38.90837,7.643648 3.05708,0.299404 9.21401,1.086233 13.68206,1.748509 4.46805,0.662276 14.19742,1.607443 21.62082,2.10037 7.4234,0.492927 16.11354,1.446618 19.31143,2.119314 13.07414,2.750231 25.2692,3.532823 94.09967,6.038648 19.94549,0.72613 36.57108,1.5097 36.94576,1.741267 0.37468,0.231567 7.91375,0.03286 16.75349,-0.441566 16.25451,-0.872378 21.4786,-0.739521 81.06206,2.061536 37.1972,1.748664 43.78425,2.387232 66.2725,6.424652 2.58677,0.464414 10.28293,1.217716 17.10258,1.674003 13.43238,0.898732 27.14174,2.656503 40.61863,5.207997 4.70321,0.890429 18.94111,3.387545 31.63978,5.549146 26.86422,4.572899 44.08213,8.309411 51.30774,11.134448 2.82193,1.103305 8.23219,2.787971 12.02279,3.743701 7.67225,1.934413 22.0502,6.779039 37.5747,12.660724 10.18359,3.858203 20.66705,8.93539 29.28581,14.183261 2.46789,1.50267 7.74579,4.61666 11.72868,6.91997 8.66495,5.01097 16.49545,11.77266 18.11084,15.63884 0.90055,2.15532 0.96926,3.72336 0.29497,6.73215 -1.12943,5.03972 -7.72797,23.23412 -10.83644,29.87968 l -2.39993,5.13078 -0.43104,25.30991 c -0.33548,19.69845 -0.69126,25.62318 -1.60466,26.72279 -2.09963,2.52764 -2.93669,1.61799 -2.43762,-2.649 z" id="path3337"/>
  </g>
</svg>

<svg class="shirtOverlay" width="86" height="380" viewBox="202.715 584.407 86.593 380.048" preserveAspectRatio="xMidYMax" xmlns="http://www.w3.org/2000/svg"><defs><linearGradient id="a" gradientUnits="userSpaceOnUse" x1="246.732" y1="686.906" x2="246.732" y2="737.622" gradientTransform="matrix(1.10628 0 0 1.16263 -27.393 -124.732)"><stop offset="0" stop-color="#fe8383"/><stop offset="1" stop-color="#fd1e1e"/></linearGradient></defs><path d="M233.773 721.648c-6.013-32.21-44.048-28.826-7.837-39.228 4.622-1.328 12.979-6.683 16.012-3.495.792.832 2.844 5.105 3.397 3.105 1.524-5.511 2.462-5.418 4.291-7.338 2.32-2.438 17.574-11.588 19.933-3.622 5.715 19.3-13.56 20.482-5.935 36.455.619 1.299-7.466 29.833-7.466 24.713" stroke="#464646" fill="url(#a)"/><g stroke="#000" stroke-width="4.007"><path d="M833.605 493.823c-5.354-1.102-14.084-3.669-19.401-5.705-5.316-2.037-11.144-4.186-12.95-4.775-1.806-.59-9.25-3.808-16.541-7.153-7.291-3.345-16.556-7.315-20.589-8.821-4.033-1.507-11.506-4.554-16.608-6.769-23.418-10.171-63.038-22.728-71.722-22.733-1.294 0-7.449-1.15-13.677-2.554-6.228-1.405-16.978-3.114-23.889-3.8-6.911-.685-15.792-1.803-19.733-2.485-3.942-.68-15.433-2.006-25.535-2.945-10.102-.94-21.427-2.077-25.169-2.526-12.534-1.504-31.41-2.538-69.228-3.79-37.033-1.229-43.868-1.663-65.688-4.174-6.085-.701-22.777-2.431-37.093-3.846-26.817-2.652-30.67-3.186-54.243-7.536-7.632-1.408-16.157-2.921-18.945-3.361-35.088-5.551-66.856-14.344-83.766-23.187-8.712-4.555-8.975-5.26-6.828-18.306 1.28-7.779 1.905-9.599 6.152-17.923 8.235-16.138 9.921-21.822 11.555-38.951l.904-9.475h1.963c1.079 0 3.312-.731 4.96-1.625 2.919-1.582 3.109-1.585 7.358-.104 2.4.835 5.295 2.286 6.436 3.221 3.256 2.673 12.632 7.431 17.612 8.94 23.321 7.064 43.439 10.621 83.364 14.742 58.006 5.988 68.913 6.662 123.682 7.656 23.088.42 47.182 1.158 53.544 1.642 6.362.485 19.169 1.251 28.46 1.704 20.929 1.021 37.238 2.678 63.445 6.444 36.435 5.238 48.159 6.893 55.493 7.838 3.968.51 13.181 2.44 20.472 4.288 7.291 1.848 16.335 3.741 20.098 4.206 9.719 1.202 21.133 4.498 27.485 7.937 2.998 1.623 10.186 4.814 15.972 7.092 29.389 11.569 41.593 17.903 66.306 34.422 12.881 8.609 17.429 11.078 29.813 16.182 13.151 5.422 29.618 9.423 44.547 10.826 9.694.91 13.126.718 29.175-1.633 6.751-.989 12.476-1.562 12.722-1.274 1.488 1.74-12.492 8.449-26.672 12.8-14.663 4.499-42.399 7.932-54.622 6.762-13.515-1.294-41.485-6.753-53.632-10.468-10.856-3.32-18.973-4.139-22.932-2.314-3.704 1.707-6.192 4.45-6.711 7.398-.309 1.761.588 3.22 3.882 6.311 2.358 2.212 6.704 6.931 9.66 10.489 5.762 6.933 12.062 11.778 23.349 17.954 13.259 7.255 13.849 7.39 34.215 7.856l18.186.417 12.803-3.818c17.676-5.273 21.761-5.953 36.199-6.022 15.543-.074 20.721.665 20.327 2.902-.302 1.719-1.65 2.058-11.356 2.858-6.608.544-40.929 8.245-46.683 10.474-6.729 2.608-22.716 5.293-36.107 6.066-17.093.986-18.827.908-29.819-1.354z" transform="matrix(.05439 -.00865 .00957 .04916 213.777 703.102)" fill="#ff2a2a"/><path d="M833.133 214.807c.774-6.624-.05-8.563-6.557-15.413-9.69-10.2-18.653-15.95-41.995-26.936-12.639-5.949-50.993-19.204-78.244-27.042-8.231-2.367-17.691-5.235-21.023-6.372-3.332-1.138-7.758-2.347-9.834-2.686-2.077-.34-8.687-1.723-14.689-3.074-31.573-7.106-66.625-10.337-115.219-10.618-22.553-.131-96.556-1.7-140.668-2.982-33.663-.978-45.424-2.091-76.534-7.246-12.464-2.065-28.897-4.547-36.518-5.516-15.211-1.934-27.536-4.387-35.087-6.985-2.693-.927-12.6-3.387-22.016-5.468-45.686-10.097-72.306-12.348-97.928-8.281-20.598 3.27-25.99 4.759-50.025 13.82-12.7 4.787-25.59 9.623-28.647 10.746-4.403 1.618-7.248 2.044-13.682 2.048-14.036.01-13.552-2.148 1.619-7.213 10.357-3.459 11.195-3.953 19.831-11.697 18.473-16.566 24.195-21.38 27.29-22.96 8.326-4.247 23.21-9.715 29.372-10.791 3.7-.646 7.744-1.66 8.988-2.255 4.994-2.386 2.443-7.869-4.902-10.536-5.555-2.017-23.047-2.577-34.365-1.1-4.909.642-13.35 1.146-18.759 1.121-13.208-.06-19.926-2.035-36.77-10.81-14.487-7.546-16.248-8.744-16.248-11.053 0-1.452 1.244-1.54 20.31-1.437 22.313.121 18.761.635 47.245-6.83 25.826-6.767 55.532-9.727 70.275-7.002 2.608.483 9.894 1.222 16.19 1.644 15.679 1.05 23.94 2.28 37.957 5.65 15.612 3.752 31.947 6.961 38.908 7.643 3.057.3 9.214 1.086 13.682 1.749 4.468.662 14.197 1.607 21.62 2.1 7.424.493 16.114 1.447 19.312 2.12 13.074 2.75 25.27 3.532 94.1 6.038 19.945.726 36.571 1.51 36.946 1.741.374.232 7.913.033 16.753-.441 16.255-.873 21.479-.74 81.062 2.061 37.197 1.749 43.784 2.388 66.273 6.425 2.587.464 10.283 1.218 17.102 1.674 13.433.899 27.142 2.656 40.619 5.208 4.703.89 18.941 3.388 31.64 5.55 26.864 4.572 44.082 8.309 51.307 11.134 2.822 1.103 8.233 2.788 12.023 3.743 7.673 1.935 22.05 6.78 37.575 12.661 10.184 3.858 20.667 8.935 29.286 14.183 2.468 1.503 7.746 4.617 11.728 6.92 8.665 5.011 16.496 11.773 18.111 15.639.9 2.155.97 3.723.295 6.732-1.13 5.04-7.728 23.234-10.836 29.88l-2.4 5.13-.431 25.31c-.336 19.699-.691 25.624-1.605 26.723-2.1 2.528-2.937 1.618-2.437-2.649z" fill="red" transform="matrix(.05522 0 0 .04992 217.039 697.639)"/></g></svg>
